-----BEGIN PGP PUBLIC KEY BLOCK-----
Comment: 2B48 3017 4198 9AB0 2332  78EF 157C 0F85 7A99 8CC0
Comment: Ammanaya Coordinator (Ammanaya Coordinator) <pucot458KK

xsFNBGm9flMBEADIvZIyp5QD/sY/OeGwvSkDNehY6VzV8O5JDVX0sHIWaXYd8M57
uf/y2peC+5pW6O63PPryvwXk7D80QGoolcRJrSTS7Amr99uHLj7+nrZSr+WspQ85
BG/RiP4KmSTh9HJXWXwIOV6LezPrnMTHYHREtZicmsq7s/5vRzDd4kMm8AfbImYM
miNjKQI+ocAlkRyovgIfqPA7xcifzMzeJM4XagSwrU2UnqlpLFcLbUhVb5kzVIxP
AY4Q2lvoene0tNZu7GiB7bQE0t6t7AYrbyjywC946WB5tCUgsfLZXgFaCL3wCmY4
SZOngcEhn7rmaWNXhdj3hd6UDX0cDGtbn1qJurWcnl0+dvuyHqZztP6gMx416w3I
LKIjf4KZoLdRZxcLUy/AuiZisXynuXdjRsHTIMtQCl0Zi9tTQUfWYLAg0tCW01a1
28o2JOIpOJITp9wf7U8G05kA9a9iqrMciPI8BS4Xb1kahLwLaA9MSWK2YXU5cvoy
8q9oUZkQd47U+skffUU7Afa/GfEKyCbp9Wp+i1erT43yQRmlYK/P73ZQ1EQsiElx
NH1YGtbIuYWTcEZo1nT9I2auJMfC5sisbhnsh0dRBGGbAD3Fqun1fxqffjct9V58
VD4tB5GtRQhFV5/P6cQvSOSnsieWUVYkZU7Td5YfK/MxDMc0hjbSBsX13QARAQAB
zUJBbW1hbmF5YSBDb29yZGluYXRvciAoQW1tYW5heWEgQ29vcmRpbmF0b3IpIDxw
dWNvdDQ1OEtLQHByb3Rvbi5tZT7CwZQEEwEKAD4WIQQrSDAXQZiasCMyeO8VfA+F
epmMwAUCab1+UwIbAwUJA8JnAAULCQgHAgYVCgkICwIEFgIDAQIeAQIXgAAKCRAV
fA+FepmMwHwzD/9dpnzc0c+VhZzb4mOubmD3sADcqR/w3pR6SI4EvlarVpt+GDxj
axh8mX7lDTUAhL2914eVlytT6ycJrsI+g1Nj3yj6p/r+qDOCEZB+v1NFVKo6GLrO
VaOgdJjusMH7bnlay3rQ3imPwI6cWLUbuCtrbDz1/xVAbuLOoNDMqDvbaru+6Ccs
36RPzP0LQM/fNNO1WfROg9G9rKLBwaCPTgcyLRjjXR/EOtXORriMLECo+0gYGuwM
vnSuAhi68+XMddfU9GD/NcgsG9yCfZsq+ia2XBLMjEID+BDGYMYk0SuhskRT4N1q
3R6J0T5uGR7xIZCcbAPFkS/bbNIkq7swhy5bzMI8Bo6yQVC3g4zI6t5tojs3EGlY
gw/ufR0v9TvkgY/y1E+oqE2n4EDuaM+qMx+ezH4imG8J+/COH/nHwGQyN2KCnAtO
uQ20Wllhox+0ExbXu1Tgelx5dBSjE6RzhjHtP2ePCh2q6uY3I1oynrFMfnalLlly
GF5Yq9aVriX1gvvmSNrawnK4mmQAa47gw0eJg6TigMw3J78VNSCoUQj+wZG+4hfv
Skw46Djsybi4+PlgIJQnj1Ooo1SpoerzMVcWZXMHq8pEyfjwF8h5GPSVHCg1Okln
Zs3YlGlsfsIVDESxwm7m2bPqS/wc7p3LwjZmT7D15+AXbWcge1e6ZS8Dws7BTQRp
vX5TARAAq70MGy69JClJdPtKxT7BIcrmnCmne5fadfaXg265f/fwUD3Y3UQVlqlP
jMIPUgDFSlFJtRvinXpD5UlvipN3eQu5wYVAwv0Nw6l5M83knVYD5baIBf/JYJgf
usORxMwCxSm1A9YWcDM3MNMlHyquRJHWmBI03dn4ODicD97KWEHp94TzHFmXnXQM
oEEV2EShk/3R0qsptwqIL4Aq72XjN/vvVstz2Di/D0AeKnkjfIHbGQW6GawC3NJB
d3K7EOKQozAt4CI2ApncCuW7FhuL0NBWBykDTvSAhJIpRkiKPV/rPO0bvi3E2+1x
0MdZPDbraJeh+7azZiK4j6QT/pOoaIGLwJyldQzUSF/BYboT8T/ch/Z/NgfV4k/S
N5SvVL4/CwCGK8sLVBCR7QIl5o5YS4EzY5OOO+QfFI7cFkNyaynpxUUJ0na86Px/
m1HUgonRy4lragN7cMo0At+0QjAdPJs6YMORs8Dzty1v/URa/XlpUBk4NbN3/QRm
4lC1ohX12081e70T5gXrqColtVG2hnJR3YRbfZdjBBSowU53Zp76tNGFycntSlSy
XXyQR63JlHtvUuAWKh5EmngR8bo9aJhZInoPYIK0AIPuaoNgnkjZWZU5WCsfQUsP
3dLoNOaG5cAvO3EjByvK3IiyFdwdnaVBqPIRYU9E8PJ59Siy2Y8AEQEAAcLBfAQY
AQoAJhYhBCtIMBdBmJqwIzJ47xV8D4V6mYzABQJpvX5TAhsMBQkDwmcAAAoJEBV8
D4V6mYzA+1YQAJB4bx1cUh9GgLAC7d7H9aee95Qw/GsJbU418MJkwwHWe9xKaT40
v2J6bh9ev2t7azdjlSxPMEJX/x3JOFuBUlP6i155jYOP9sSCImJSEhJOBtznMu5h
LXsZ1nN9av9QHow/TLHKPrf3FuRYJNrCLvSWUs9/aOUiYPWB0LOqVpBOT6BzfBX9
mBLjKU5kp/jea7m45XVNJnwP08lTu1kvLrwcKYV5552X4zezDJXiJABxQnfzJq+4
ztVc787IVFBjMGGaGFEF4alB4yscvRo2VWRDmBpdKloKvIQDqQob+Q8BhxY+z7gu
ruS8bYSoKc28g/GR2oV3XAmrVAVYeM0U9jYZ0oueEPTZegF0FSse3E7x6DItoixN
gDKH0IfL+OQPBBQbBGV77kXmld2iTVwpwE8cKKpIGWPGCnRXqe2Psc3WcjlVUggN
dLpkvwkYVS1WdD6YEPL/oz3Y71IWuxJegm+ZaRFfP2v7K24S+0iBh61VInRf15sj
54blcN/awnAYjrB+bBQzqGwcGSLDojPIWr3YF6MLmiUzOmSngJdz5XYXplhR1rAG
9hgfY1oVv2g8lKndwOlIQqXxpvrsksHGYGyVSShIZQ6OZwBv7sd0ux0y6V0/TQzL
WpVqJxucVjvfyUOHQGqRRdDcCAFKlZzZPbhsHdOE1XCBogFzIU2eowmq
=GErV
-----END PGP PUBLIC KEY BLOCK-----
